packages/icons/src/assets/arrows-expand.svg

<svg xmlns="http://www.w3.org/2000/svg" width="16" height="16" viewBox="0 0 16 16"><path d="M1 14.3738C1 14.719 1.27982 14.9988 1.625 14.9988H6.25V13.7488H3.13477L6.06738 10.8162L6.50879 10.3738L5.625 9.49L5.18262 9.93141L2.25 12.864V9.74879H1V14.3738Z"/><path d="M14.9988 14.3738C14.9988 14.719 14.719 14.9988 14.3738 14.9988H9.74879V13.7488H12.864L9.9314 10.8162L9.49 10.3738L10.3738 9.49L10.8162 9.93141L13.7488 12.864V9.74879H14.9988V14.3738Z"/><path d="M1 1.625C1 1.27982 1.27982 1 1.625 1H6.25V2.25H3.13477L6.06738 5.18262L6.50879 5.625L5.625 6.50879L5.18262 6.06738L2.25 3.13477V6.25H1V1.625Z"/><path d="M14.9988 1.625C14.9988 1.27982 14.719 1 14.3738 1H9.74879V2.25H12.864L9.93141 5.18262L9.49 5.625L10.3738 6.50879L10.8162 6.06738L13.7488 3.13477V6.25H14.9988V1.625Z"/></svg>

<svg xmlns="http://www.w3.org/2000/svg" width="16" height="16" viewBox="0 0 16 16"><path d="M1 14.374c0 .345.28.625.625.625H6.25v-1.25H3.135l2.932-2.933.442-.442-.884-.884-.442.441-2.933 2.933V9.749H1zm13.999 0c0 .345-.28.625-.625.625H9.749v-1.25h3.115l-2.933-2.933-.441-.442.884-.884.442.441 2.933 2.933V9.749h1.25zM1 1.625C1 1.28 1.28 1 1.625 1H6.25v1.25H3.135l2.932 2.933.442.442-.884.884-.442-.442L2.25 3.135V6.25H1zm13.999 0A.625.625 0 0 0 14.374 1H9.749v1.25h3.115L9.931 5.183l-.441.442.884.884.442-.442 2.933-2.932V6.25h1.25z"/></svg>
